X: 1
T: Ann of Scotia
T: 8x32S 3C (Sue and Chris Ronald)
P: Highland Cathedral
R: strathspey
C: Ulrich Roever and Michael Korb (Tyskland)
C: Arr. T. Traub 10-16-2014
M: 4/4
L: 1/8
K: D
R: strathspey
|: "D"d3 e/f/ edAd|"A"e3 f "D"f4|"D"f3 g/a/ "Em"gfed|"A"e3 f A4|"G"B3 c/d/ "D"dAcd|"A"a3 g "Bm"f4|"A"e3 f/g/ "D"fdAd|"A"e3 d "D"d4 :|
"A"c3 A e3 c/e/|"F#m"f3 c c3 B|"A"A2-A/B/c "E"B4|"A"c2-c/d/e "E"B4|"A"c3 A e3 c/e/|"F#m"f3 c c3 B|"D"A2-A/B/c "E"B3 A|"A  A7"A8||
"D"d3 e/f/ edAd|"A"e3 f "D"f4|"D"f3 g/a/ "Em"gfed|"A"e3 f A4|"G"B3 c/d/ "D"dAcd|"A"a3 g "Bm"f4|"A"e3 f/g/ "D"fdAd|"A"e3 d "D"d4 |]
